!!!COM: Gabriel Faure/
!!!CNT: Francais
!!!TXO: Francais
!!!OTL: Ici~Bas!
!!!OPS: Op. 8
!!!ONM: No. 3
!!!LYR: Sully Prudhomme
!!!ENC: Jacob Pegg
!!!YOR: Album of Twenty Songs (Vingt Me/lodies,) Volume I
!!!YOR: Edward B. Marks Music Corporation, RCA Building, Radio
!!!YOR: City, New York 20, N.Y.
!!!ODT: 1874/
!!NB: Vocal melody and text only encoded.
!!NB: First instance of melodic material only encoded.
**kern	**silbe
*clef G2	*
*k[b-e-]	*
*M2/4	*
*MM[andantino]	*
!!created: 8/22/03 11:41
!!proofed and posted: 8/22/03 13:04
!!edit time: 22 min.
=1	=1
2r	.
=2	=2
4r	.
4r	.
=3	=3
{8.dd	{I-
16b-	-ci~
4g	~bas
=4	=4
16g	tous
16a	les
16b-	li-
16cc	-las
8dd	meu-
16dd	-rent,
16dd	Tous
=5	=5
16dd	les
16cc	chants
16dd	des
16ee-	oi-
8.ff	-seaux
16dd	sont
=6	=6
2cc}	courts,}
=7	=7
16r	.
{16cc	{Je
[8ee	re^-
(16ee]	|
16dd)	|
16cc	-ve aux
16b-	e/-
=8	=8
8cc	-te/s
16cc	qui
16cc	de-
8ee-	-meu-
16ff	-rent
16ee-	tou-
=9	=9
[2dd	-jours!
=10	=10
4dd]}	|}
4r	.
!!mm. 3-10 repeat in 11-18
=19	=19
{16dd	{I-
16bn	-ci~
8g	~bas,
16a-	tous
16b-	les
16cc	hom-
16dd	-mes
=20	=20
4dd	pleu-
4g}	-rent}
=21	=21
{8cc	{Leurs
16cc	a-
16cc	-mi-
16b-	-tie/s
16b-	ou
16cc	leurs
16b-	a-
=22	=22
4.g}	-mours.}
{8g	{Je
=23	=23
8.ee-	re^ve
16dd	aux
16ff	cou-
16ee-	-ples
16dd	qui
16cc	de-
=24	=24
4gg	-meu-
[4b-	-rent,
=25	=25
8b-]}	|}
16r	.
{16b-	{aux
16dd	cou-
16cc	-ples
16b-	qui
16a-	de-
=26	=26
4ff	-meu-
[4g	-rent,
=27	=27
4g]}	|}
{8.g	{qui
16g	de-
=28	=28
2dd	-meu-
=29	=29
4.f#	-rent
8g	tou-
=30	=30
[2g	-jours!
=31	=31
4g]}	|}
4r	.
*-	*-
